markets/CEX.svg

<svg width="43" height="43" viewBox="0 0 43 43" fill="none" xmlns="http://www.w3.org/2000/svg">
<circle cx="21.5411" cy="21.2" r="21" fill="#06061B"/>
<path d="M19.4281 10.615L22.2899 7.75319L25.1532 10.6165L26.8185 8.95127L22.2899 4.42273L17.7628 8.9498L19.4281 10.615ZM14.9216 11.791L16.5869 10.1258L18.2521 11.791L16.5869 13.4562L14.9216 11.791ZM19.4281 12.967L22.2899 15.8288L25.1532 12.9655L26.8185 14.63L22.2899 19.1593L17.7628 14.6322L17.7606 14.63L19.4281 12.967ZM26.3277 11.791L27.993 10.1258L29.6582 11.791L27.993 13.4562L26.3277 11.791ZM23.9787 11.7895H23.9802V11.791L22.2899 13.4813L20.6018 11.794L20.5989 11.791L20.6018 11.7888L20.8973 11.4926L21.041 11.3489L22.2899 10.1007L23.9795 11.7903L23.9787 11.7895Z" fill="#F3BA2F"/>
<rect x="10.3855" y="21.7706" width="9.55633" height="3.21897" fill="#02A6C2"/>
<rect x="10.3855" y="25.9955" width="6.84032" height="3.21897" fill="#5FCADE"/>
<rect x="10.3855" y="30.2205" width="3.21897" height="3.21897" fill="#ABEBF4"/>
<rect x="6.36182" y="25.9955" width="3.21897" height="3.21897" fill="#5FCADE"/>
<path d="M27.1641 23.4521C28.4987 22.5932 29.9736 21.9533 31.5134 21.5529C32.7111 21.2415 35.4213 20.8514 36.5985 21.1354C36.092 21.7719 35.5376 22.446 35.0072 23.062C33.7822 24.3726 32.5024 25.6456 31.0583 26.7132C28.9915 28.277 26.6029 29.5534 23.9954 29.8546C23.9475 28.8622 24.0262 27.8527 24.3547 26.9083C24.6387 26.0528 25.1144 25.2623 25.7474 24.6224C26.1615 24.1707 26.6371 23.7669 27.1641 23.4521Z" fill="#709B30"/>
<path d="M36.6157 21.1807C37.8544 27.3299 33.5907 35.5871 26.0624 33.0275C25.4396 32.8153 24.9126 32.3602 24.4746 31.864C27.1677 31.4568 29.4159 30.0606 31.4041 28.2709C33.6386 26.2588 35.0827 23.7334 36.6157 21.1807Z" fill="#98C455"/>
</svg>

<svg xmlns="http://www.w3.org/2000/svg" width="43" height="43" fill="none"><circle cx="21.541" cy="21.2" r="21" fill="#06061B"/><path fill="#F3BA2F" d="m19.428 10.615 2.862-2.862 2.863 2.864L26.82 8.95l-4.53-4.528-4.526 4.527 1.665 1.665Zm-4.506 1.176 1.665-1.665 1.665 1.665-1.665 1.665-1.665-1.665Zm4.506 1.176 2.862 2.862 2.863-2.864 1.666 1.665-4.53 4.53-4.526-4.528-.002-.002 1.667-1.663Zm6.9-1.176 1.665-1.665 1.665 1.665-1.665 1.665-1.665-1.665Zm-2.35-.002h.002v.002l-1.69 1.69-1.688-1.687-.003-.003.003-.002.295-.296.144-.144L22.29 10.1l1.69 1.69-.001-.002Z"/><path fill="#02A6C2" d="M10.386 21.771h9.556v3.219h-9.556z"/><path fill="#5FCADE" d="M10.386 25.995h6.84v3.219h-6.84z"/><path fill="#ABEBF4" d="M10.386 30.221h3.219v3.219h-3.219z"/><path fill="#5FCADE" d="M6.362 25.995h3.219v3.219H6.362z"/><path fill="#709B30" d="M27.164 23.452a15.04 15.04 0 0 1 4.35-1.9c1.197-.31 3.907-.7 5.085-.417-.507.637-1.061 1.311-1.592 1.927-1.225 1.31-2.505 2.584-3.949 3.651-2.067 1.564-4.455 2.84-7.063 3.142-.047-.993.031-2.002.36-2.947a5.899 5.899 0 0 1 1.392-2.286c.415-.451.89-.855 1.417-1.17Z"/><path fill="#98C455" d="M36.616 21.18c1.238 6.15-3.025 14.407-10.554 11.848-.622-.213-1.15-.668-1.587-1.164 2.693-.407 4.94-1.803 6.93-3.593 2.234-2.012 3.678-4.538 5.21-7.09Z"/></svg>
